icons/svg/sport/swimming_indoor.svg

<?xml version="1.0" encoding="UTF-8" standalone="no"?>
<!-- Created with Inkscape (http://www.inkscape.org/) -->

<svg
   xmlns:i="http://ns.adobe.com/AdobeIllustrator/10.0/"
   xmlns:dc="http://purl.org/dc/elements/1.1/"
   xmlns:cc="http://creativecommons.org/ns#"
   xmlns:rdf="http://www.w3.org/1999/02/22-rdf-syntax-ns#"
   xmlns:svg="http://www.w3.org/2000/svg"
   xmlns="http://www.w3.org/2000/svg"
   xmlns:sodipodi="http://sodipodi.sourceforge.net/DTD/sodipodi-0.dtd"
   xmlns:inkscape="http://www.inkscape.org/namespaces/inkscape"
   version="1.0"
   width="580"
   height="580"
   id="svg2"
   sodipodi:version="0.32"
   inkscape:version="0.91 r"
   sodipodi:docname="swimming_indoor.svg"
   inkscape:output_extension="org.inkscape.output.svg.inkscape">
  <metadata
     id="metadata1976">
    <rdf:RDF>
      <cc:Work
         rdf:about="">
        <dc:format>image/svg+xml</dc:format>
        <dc:type
           rdf:resource="http://purl.org/dc/dcmitype/StillImage" />
        <cc:license
           rdf:resource="http://web.resource.org/cc/PublicDomain" />
        <dc:language>en</dc:language>
      </cc:Work>
    </rdf:RDF>
  </metadata>
  <sodipodi:namedview
     inkscape:window-height="1004"
     inkscape:window-width="1920"
     inkscape:pageshadow="2"
     inkscape:pageopacity="0.0"
     guidetolerance="10.0"
     gridtolerance="10.0"
     objecttolerance="10.0"
     borderopacity="1.0"
     bordercolor="#666666"
     pagecolor="#ffffff"
     id="base"
     inkscape:zoom="0.92167712"
     inkscape:cx="365.58774"
     inkscape:cy="239.73163"
     inkscape:window-x="1680"
     inkscape:window-y="0"
     inkscape:current-layer="svg2"
     showgrid="false"
     inkscape:window-maximized="1" />
  <defs
     id="defs4">
    <inkscape:perspective
       sodipodi:type="inkscape:persp3d"
       inkscape:vp_x="0 : 290 : 1"
       inkscape:vp_y="0 : 1000 : 0"
       inkscape:vp_z="580 : 290 : 1"
       inkscape:persp3d-origin="290 : 193.33333 : 1"
       id="perspective3653" />
  </defs>
  <g
     id="g1327">
    <path
       d="M 66.275,1.768 C 24.94,1.768 1.704,23.139 1.704,66.804 L 1.704,516.927 C 1.704,557.771 22.6,579.156 63.896,579.156 L 515.92,579.156 C 557.227,579.156 578.149,558.842 578.149,516.927 L 578.149,66.804 C 578.149,24.203 557.227,1.768 514.628,1.768 C 514.624,1.768 66.133,1.625 66.275,1.768 z "
       style="fill:#111;stroke:#eee;stroke-width:3.40799999"
       id="path1329" />
  </g>
  <path
     d="M 544.69568,158.34368 C 544.69568,160.95048 542.79605,162.11452 540.47343,160.93081 L 301.36702,82.722431 C 299.0444,81.538715 295.21453,81.4786 292.85694,82.591272 L 40.764617,157.78297 C 38.40702,158.89565 36.477879,157.67149 36.477879,155.06469 L 36.477879,133.94141 C 36.477879,131.33461 38.40702,128.2917 40.764617,127.17903 L 292.85694,51.987329 C 295.21453,50.874657 299.0444,50.934772 301.36702,52.118489 L 540.47343,130.32687 C 542.79605,131.51058 544.69568,134.6136 544.69568,137.2204 L 544.69568,158.34368 L 544.69568,158.34368 z"
     style="fill:none;fill-opacity:1;stroke:#ffffff;stroke-width:32.78993988"
     id="path2253"
     sodipodi:nodetypes="cccccccccccccc" />
  <path
     d="m 520.67002,430.86271 c -4.07272,1.2435 -9.33253,1.00505 -16.23195,-0.47046 -7.01222,-1.59602 -13.40398,-9.03642 -25.05428,-8.62492 -11.93361,0.41408 -28.78858,11.10419 -45.0744,11.10419 -16.51654,-0.35125 -35.06625,-11.57721 -51.91995,-11.57721 -16.79729,0.11921 -32.06779,11.75284 -48.18564,12.10794 -16.40119,0.0577 -32.74595,-10.86576 -48.8074,-11.10163 -16.28837,-0.41278 -31.72808,9.68764 -46.94217,9.56714 -14.9872,-0.29356 -28.27837,-11.04523 -43.15276,-10.57345 -15.2705,0.59353 -32.01138,12.40406 -46.94216,13.11299 -15.0436,0.23715 -28.67449,-10.98369 -41.96439,-11.10421 -13.40272,-0.23587 -28.447585,8.20957 -37.496816,10.10044 -9.049246,1.71524 -14.761576,1.89215 -16.910118,0.53201 l 0,31.30375 c 2.148542,1.35757 7.860872,1.18195 16.910118,-0.53201 9.049231,-1.89085 24.092825,-10.33631 37.496816,-10.10042 13.29118,0.11921 26.92079,11.34006 41.96439,11.10163 14.93078,-0.58843 31.67166,-12.69764 46.94216,-13.11172 14.87439,-0.5897 28.16428,10.39527 43.15276,10.63116 15.21409,0.1205 30.6538,-9.91967 46.94217,-9.62482 16.06145,0.23459 32.40621,11.15929 48.8074,11.10289 16.11785,-0.3551 31.38835,-11.99129 48.18564,-12.10923 16.8537,-0.0564 35.40341,11.34135 51.91995,11.63877 16.28582,0 33.14208,-10.69397 45.0744,-11.10547 11.6503,-0.5333 18.04206,7.0276 25.05428,8.56337 6.89942,1.47679 12.15923,1.71266 16.23195,0.47175 l 0,-31.30248 z"
     i:knockout="Off"
     id="path113"
     style="clip-rule:evenodd;fill:#ffffff;fill-opacity:1;fill-rule:evenodd"
     inkscape:connector-curvature="0" />
  <path
     clip-rule="evenodd"
     d="M 252.64917,401.80515 L 382.04844,332.76229 C 371.87111,310.43599 364.6871,293.60535 360.50156,281.61535 C 356.20192,269.6843 354.39311,267.02684 356.82496,261.35681 C 359.3132,255.50986 355.8635,254.62405 374.8106,246.88752 C 393.75516,238.85486 450.42471,215.82093 468.91801,214.69923 C 487.01648,213.75443 486.28192,233.71684 483.28473,240.45089 C 480.00296,247.00547 463.14926,248.65917 450.36829,253.85744 C 437.41554,258.81855 423.1642,264.36937 406.70661,270.51244 L 465.91955,400.80137 C 458.28559,407.35596 448.1608,409.89804 434.47478,408.89173 C 420.56185,407.53671 402.01085,394.30708 384.70593,394.24426 C 367.45609,394.30708 347.77443,409.07119 331.99629,409.36475 C 316.16045,409.3045 303.60511,396.54919 290.37033,395.25187 C 277.08171,393.94812 264.58277,396.13255 252.64917,401.80515 z"
     i:knockout="Off"
     id="path115"
     style="fill:#ffffff;fill-opacity:1;fill-rule:evenodd" />
  <path
     clip-rule="evenodd"
     d="M 485.13331,289.06343 C 505.08288,289.06343 521.27127,305.96969 521.27127,326.80254 C 521.27127,347.63539 505.08162,364.54164 485.13331,364.54164 C 465.185,364.54164 448.99406,347.63539 448.99406,326.80254 C 448.99406,305.96969 465.18371,289.06343 485.13331,289.06343"
     i:knockout="Off"
     id="path117"
     style="fill:#ffffff;fill-opacity:1;fill-rule:evenodd" />
  <path
     clip-rule="evenodd"
     d="M 165.32709,404.34338 C 150.00019,401.50773 134.39126,397.14144 117.42475,391.23041 C 100.34415,384.97325 71.218417,376.58422 64.317713,368.37466 C 57.418297,359.92922 62.451206,343.03834 76.365405,342.27045 C 90.333465,341.50258 118.0465,353.90537 146.83379,364.1827 C 175.45059,374.34337 208.19654,387.04101 246.82531,402.92813 C 242.07444,405.52663 235.79674,406.35348 227.76539,405.17152 C 219.62119,403.81138 209.3285,396.31074 198.86527,396.07614 C 188.34565,395.89795 177.3171,398.73361 165.32709,404.34338 z"
     i:knockout="Off"
     id="path119"
     style="fill:#ffffff;fill-opacity:1;fill-rule:evenodd" />
  <path
     d="m 520.67002,488.67804 c -4.07272,1.12042 -9.33253,0.9448 -16.23195,-0.532 -7.01222,-1.53449 -13.40398,-9.09794 -25.05428,-8.56593 -11.93361,0.41278 -28.78858,11.10289 -45.0744,11.10289 -16.51654,-0.35254 -35.06625,-11.57465 -51.91995,-11.57465 -16.79729,0.11922 -32.06779,11.75414 -48.18564,12.10666 -16.40119,0.0602 -32.74595,-10.86574 -48.8074,-11.1029 -16.28837,-0.41408 -31.72808,9.68635 -46.94217,9.56842 -14.9872,-0.29485 -28.27837,-11.04522 -43.15276,-10.57218 -15.2705,0.58968 -32.01138,12.40151 -46.94216,13.113 -15.0436,0.23459 -28.67449,-10.98754 -41.96439,-11.10548 -13.40272,-0.2346 -28.447585,8.20956 -37.496816,10.10043 -9.049246,1.83317 -14.761576,1.77165 -16.910118,0.47304 l 0,31.30246 c 2.148542,1.2986 7.860872,1.36014 16.910118,-0.47303 9.049231,-1.89215 24.092825,-10.33502 37.496816,-10.10042 13.29118,0.11793 26.92079,11.34005 41.96439,11.10545 14.93078,-0.71147 31.67166,-12.52329 46.94216,-13.11298 14.87439,-0.47303 28.16428,10.27733 43.15276,10.57218 15.21409,0.11794 30.6538,-9.98249 46.94217,-9.56843 16.06145,0.23717 32.40621,11.16317 48.8074,11.10292 16.11785,-0.35255 31.38835,-11.99129 48.18564,-12.10667 16.8537,0 35.40341,11.22212 51.91995,11.57466 16.28582,0 33.14208,-10.69012 45.0744,-11.10292 11.6503,-0.41406 18.04206,7.02633 25.05428,8.62363 6.89942,1.47681 12.15923,1.71396 16.23195,0.47434 l 0,-31.30249 z"
     i:knockout="Off"
     id="path121"
     style="clip-rule:evenodd;fill:#ffffff;fill-opacity:1;fill-rule:evenodd"
     inkscape:connector-curvature="0" />
</svg>

<svg width="580" height="580" viewBox="0 0 580 580" fill="none" xmlns="http://www.w3.org/2000/svg">
<g clip-path="url(#clip0)">
<path d="M66.2751 1.76815C24.9401 1.76815 1.7041 23.1391 1.7041 66.8041V516.927C1.7041 557.771 22.6001 579.156 63.8961 579.156H515.92C557.227 579.156 578.149 558.842 578.149 516.927V66.8041C578.149 24.2031 557.227 1.76815 514.628 1.76815C514.624 1.76815 66.1331 1.62515 66.2751 1.76815Z" fill="#111111" stroke="#EEEEEE" stroke-width="3.408"/>
<path d="M544.696 158.344C544.696 160.951 542.796 162.115 540.474 160.931L301.367 82.7226C299.045 81.5389 295.215 81.4788 292.857 82.5914L40.7648 157.783C38.4072 158.896 36.478 157.672 36.478 155.065V133.942C36.478 131.335 38.4072 128.292 40.7648 127.179L292.857 51.9875C295.215 50.8748 299.045 50.9349 301.367 52.1186L540.474 130.327C542.796 131.511 544.696 134.614 544.696 137.221V158.344Z" stroke="white" stroke-width="32.7899"/>
<path fill-rule="evenodd" clip-rule="evenodd" d="M520.67 430.863C516.597 432.106 511.337 431.868 504.438 430.392C497.426 428.796 491.034 421.356 479.384 421.767C467.45 422.181 450.595 432.872 434.309 432.872C417.793 432.52 399.243 421.294 382.389 421.294C365.592 421.414 350.321 433.047 334.204 433.402C317.802 433.46 301.458 422.537 285.396 422.301C269.108 421.888 253.668 431.988 238.454 431.868C223.467 431.574 210.176 420.823 195.301 421.294C180.031 421.888 163.29 433.698 148.359 434.407C133.316 434.645 119.685 423.424 106.395 423.303C92.992 423.067 77.9471 431.513 68.8979 433.404C59.8487 435.119 54.1363 435.296 51.9878 433.936V465.239C54.1363 466.597 59.8487 466.421 68.8979 464.707C77.9471 462.816 92.9907 454.371 106.395 454.607C119.686 454.726 133.316 465.947 148.359 465.709C163.29 465.12 180.031 453.011 195.301 452.597C210.176 452.007 223.466 462.992 238.454 463.228C253.668 463.349 269.108 453.308 285.396 453.603C301.458 453.838 317.802 464.762 334.204 464.706C350.321 464.351 365.592 452.715 382.389 452.597C399.243 452.54 417.793 463.938 434.309 464.236C450.595 464.236 467.451 453.542 479.384 453.13C491.034 452.597 497.426 460.158 504.438 461.694C511.337 463.17 516.597 463.406 520.67 462.165V430.863V430.863Z" fill="white"/>
<path fill-rule="evenodd" clip-rule="evenodd" d="M252.649 401.805L382.049 332.762C371.871 310.436 364.687 293.606 360.502 281.616C356.202 269.684 354.393 267.027 356.825 261.357C359.313 255.51 355.864 254.624 374.811 246.888C393.755 238.855 450.425 215.821 468.918 214.699C487.017 213.755 486.282 233.717 483.285 240.451C480.003 247.006 463.149 248.659 450.369 253.858C437.416 258.819 423.164 264.37 406.707 270.513L465.92 400.802C458.286 407.356 448.161 409.898 434.475 408.892C420.562 407.537 402.011 394.307 384.706 394.244C367.456 394.307 347.775 409.071 331.997 409.365C316.161 409.305 303.605 396.549 290.371 395.252C277.082 393.948 264.583 396.133 252.649 401.805Z" fill="white"/>
<path fill-rule="evenodd" clip-rule="evenodd" d="M485.133 289.063C505.083 289.063 521.271 305.97 521.271 326.803C521.271 347.635 505.082 364.542 485.133 364.542C465.185 364.542 448.994 347.635 448.994 326.803C448.994 305.97 465.184 289.063 485.133 289.063Z" fill="white"/>
<path fill-rule="evenodd" clip-rule="evenodd" d="M165.327 404.343C150 401.508 134.391 397.141 117.425 391.23C100.344 384.973 71.2184 376.584 64.3177 368.375C57.4183 359.929 62.4512 343.038 76.3654 342.27C90.3334 341.502 118.046 353.905 146.834 364.183C175.451 374.343 208.197 387.041 246.825 402.928C242.074 405.526 235.797 406.353 227.765 405.171C219.621 403.811 209.328 396.311 198.865 396.076C188.346 395.898 177.317 398.733 165.327 404.343Z" fill="white"/>
<path fill-rule="evenodd" clip-rule="evenodd" d="M520.67 488.678C516.597 489.798 511.337 489.622 504.438 488.146C497.426 486.611 491.034 479.048 479.384 479.58C467.45 479.992 450.595 490.683 434.309 490.683C417.793 490.33 399.243 479.108 382.389 479.108C365.592 479.227 350.321 490.862 334.204 491.215C317.802 491.275 301.458 480.349 285.396 480.112C269.108 479.698 253.668 489.798 238.454 489.68C223.467 489.385 210.176 478.635 195.301 479.108C180.031 479.698 163.29 491.509 148.359 492.221C133.316 492.456 119.685 481.233 106.395 481.115C92.992 480.881 77.9471 489.325 68.8979 491.216C59.8487 493.049 54.1363 492.988 51.9878 491.689V522.991C54.1363 524.29 59.8487 524.352 68.8979 522.518C77.9471 520.626 92.9907 512.183 106.395 512.418C119.686 512.536 133.316 523.758 148.359 523.523C163.29 522.812 180.031 511 195.301 510.41C210.176 509.937 223.466 520.688 238.454 520.983C253.668 521.101 269.108 511 285.396 511.414C301.458 511.651 317.802 522.577 334.204 522.517C350.321 522.165 365.592 510.526 382.389 510.41C399.243 510.41 417.793 521.633 434.309 521.985C450.595 521.985 467.451 511.295 479.384 510.882C491.034 510.468 497.426 517.908 504.438 519.506C511.337 520.983 516.597 521.22 520.67 519.98V488.678V488.678Z" fill="white"/>
</g>
<defs>
<clipPath id="clip0">
<path d="M0 0H580V580H0V0Z" fill="white"/>
</clipPath>
</defs>
</svg>
